ufans-frontend-package/public/assets/images/create-post.svg

<svg width="116" height="123" viewBox="0 0 116 123" fill="none" xmlns="http://www.w3.org/2000/svg">
<g clip-path="url(#clip0_1_4)">
<path d="M57.34 116.35C58.1747 116.396 58.96 116.76 59.5345 117.368C60.1091 117.975 60.4292 118.779 60.4292 119.615C60.4292 120.451 60.1091 121.255 59.5345 121.862C58.96 122.47 58.1747 122.834 57.34 122.88H7.6C5.58517 122.877 3.65361 122.076 2.22891 120.651C0.804208 119.226 0.00264588 117.295 0 115.28L0 7.6C0.00264588 5.58517 0.804208 3.65361 2.22891 2.22891C3.65361 0.804206 5.58517 0.00264401 7.6 -1.87142e-06H98.36C99.361 -0.00394904 100.353 0.189645 101.279 0.56969C102.205 0.949736 103.047 1.50876 103.757 2.21475C104.467 2.92074 105.03 3.75981 105.415 4.68391C105.8 5.608 105.999 6.59895 106 7.6V61.6C106.002 62.0781 105.972 62.5559 105.91 63.03H105.25H104.83H104.74H104.65H104.57H104.49H104.4H104.32H104.23H104.15H104.07H103.99H103.9H103.82H103.74H103.66H103.57H103.49H103.41H103.33H103.25H102.91H102.84H102.76H102.68H102.6H99.43V7.6C99.4249 7.31782 99.3105 7.04863 99.1109 6.84907C98.9114 6.64951 98.6422 6.53513 98.36 6.53H7.6C7.31636 6.53243 7.04442 6.64336 6.84 6.84C6.64506 7.04552 6.53442 7.31676 6.53 7.6V115.27C6.52766 115.41 6.55495 115.55 6.61008 115.679C6.66522 115.808 6.74697 115.924 6.85 116.02C7.05342 116.219 7.32519 116.334 7.61 116.34L57.34 116.35ZM92.39 116.48L76 122.08L76.13 103.83L92.42 116.48H92.39ZM80.73 97.72L98.41 73.72C98.6183 73.4247 98.9205 73.2085 99.2673 73.1068C99.6142 73.0052 99.9852 73.0239 100.32 73.16L114.8 84C114.955 84.1185 115.083 84.2686 115.176 84.4404C115.269 84.6121 115.324 84.8016 115.338 84.9963C115.353 85.1909 115.325 85.3864 115.258 85.5698C115.191 85.7532 115.086 85.9202 114.95 86.06L97 110.38L80.73 97.72ZM29.13 62.84C28.7699 61.7569 28.701 60.5982 28.93 59.48C29.39 55.93 30.31 55.27 33.59 54.36C37.27 53.36 41.43 53.27 44.59 51.09C44.8716 50.6322 45.1189 50.1543 45.33 49.66C45.7 48.81 46.04 47.89 46.25 47.26C45.3648 46.1671 44.5562 45.0144 43.83 43.81L41.38 39.91C40.6067 38.8699 40.1298 37.6396 40 36.35C39.9833 35.9097 40.0689 35.4716 40.25 35.07C40.428 34.6628 40.7196 34.3156 41.09 34.07C41.2679 33.9368 41.4675 33.8353 41.68 33.77C41.5095 31.4407 41.4694 29.1037 41.56 26.77C41.6164 26.2327 41.7167 25.7009 41.86 25.18C42.5525 22.9831 44.0251 21.1156 46 19.93C47.0751 19.2496 48.2442 18.7308 49.47 18.39C50.25 18.17 48.8 15.68 49.61 15.6C53.5 15.2 59.79 18.75 62.51 21.69C63.9851 23.3482 64.831 25.4717 64.9 27.69L64.75 34.05C65.0611 34.1342 65.3427 34.3031 65.5634 34.5379C65.7841 34.7728 65.9353 35.0643 66 35.38C66.14 36.5364 65.9052 37.7071 65.33 38.72V38.72V38.81L62.53 43.4C61.588 45.1077 60.4394 46.693 59.11 48.12L59.49 48.66C60.0139 49.4905 60.6095 50.2735 61.27 51C61.298 51.0196 61.3191 51.0476 61.33 51.08C63.69 52.74 68.53 53.48 72.12 54.42C75.12 55.21 76.22 55.42 76.89 58.7C77.23 60.32 77.24 62.1 76.8 62.83L29.13 62.84ZM26.67 97.89C25.8249 97.8435 25.0297 97.475 24.4479 96.8603C23.8661 96.2456 23.5419 95.4314 23.5419 94.585C23.5419 93.7386 23.8661 92.9244 24.4479 92.3097C25.0297 91.695 25.8249 91.3265 26.67 91.28H71L70.94 91.37V91.42V91.47V93V93.13V93.21V94V94.12H70.87H70.81H70.75H70.69H70.63H70.57H70.51L70.44 94.17H70.38H70.32L70.26 94.23H70.21H70.15L70.09 94.28H70.03L69.97 94.34H69.92L69.86 94.4L69.8 94.46L69.74 94.52V94.58V94.64V94.69V94.75L69.68 94.81V94.87H69.63V94.93V94.99L69.58 95.05V95.11V95.18V95.24V95.31V95.37L69.53 95.43V95.49V95.56V95.63V95.7V95.77V95.84V95.91L26.67 97.89ZM27.94 79.73C27.496 79.7546 27.0517 79.6884 26.6342 79.5354C26.2167 79.3824 25.8348 79.1459 25.5118 78.8403C25.1888 78.5347 24.9316 78.1664 24.7557 77.758C24.5799 77.3496 24.4892 76.9096 24.4892 76.465C24.4892 76.0204 24.5799 75.5804 24.7557 75.172C24.9316 74.7636 25.1888 74.3953 25.5118 74.0897C25.8348 73.7841 26.2167 73.5476 26.6342 73.3946C27.0517 73.2416 27.496 73.1754 27.94 73.2H75.78C76.224 73.1754 76.6683 73.2416 77.0858 73.3946C77.5033 73.5476 77.8852 73.7841 78.2082 74.0897C78.5312 74.3953 78.7884 74.7636 78.9643 75.172C79.1401 75.5804 79.2308 76.0204 79.2308 76.465C79.2308 76.9096 79.1401 77.3496 78.9643 77.758C78.7884 78.1664 78.5312 78.5347 78.2082 78.8403C77.8852 79.1459 77.5033 79.3824 77.0858 79.5354C76.6683 79.6884 76.224 79.7546 75.78 79.73H27.94Z" fill="#6661E7"/>
</g>
<defs>
<clipPath id="clip0_1_4">
<rect width="115.34" height="122.88" fill="white"/>
</clipPath>
</defs>
</svg>

<svg xmlns="http://www.w3.org/2000/svg" xmlns:xlink="http://www.w3.org/1999/xlink" width="115.34" height="122.88" viewBox="0 0 115.34 122.88">
  <defs>
    <clipPath id="clip-path">
      <rect id="Rectangle_1" data-name="Rectangle 1" width="115.34" height="122.88" fill="#e44499"/>
    </clipPath>
  </defs>
  <g id="create-post" clip-path="url(#clip-path)">
    <path id="Path_1" data-name="Path 1" d="M57.34,116.35a3.27,3.27,0,0,1,0,6.53H7.6a7.61,7.61,0,0,1-7.6-7.6V7.6A7.61,7.61,0,0,1,7.6,0H98.36A7.61,7.61,0,0,1,106,7.6v54a10.686,10.686,0,0,1-.09,1.43H99.43V7.6a1.09,1.09,0,0,0-1.07-1.07H7.6a1.11,1.11,0,0,0-.76.31,1.13,1.13,0,0,0-.31.76V115.27a1,1,0,0,0,.32.75,1.121,1.121,0,0,0,.76.32Zm35.05.13L76,122.08l.13-18.25,16.29,12.65ZM80.73,97.72l17.68-24a1.6,1.6,0,0,1,1.91-.56L114.8,84a1.384,1.384,0,0,1,.15,2.064L97,110.38ZM29.13,62.84a6.51,6.51,0,0,1-.2-3.36c.46-3.55,1.38-4.21,4.66-5.12,3.68-1,7.84-1.09,11-3.27a10.9,10.9,0,0,0,.74-1.43c.37-.85.71-1.77.92-2.4a30.518,30.518,0,0,1-2.42-3.45l-2.45-3.9A7.17,7.17,0,0,1,40,36.35a2.851,2.851,0,0,1,.25-1.28,2.31,2.31,0,0,1,.84-1,1.93,1.93,0,0,1,.59-.3,62.612,62.612,0,0,1-.12-7,9.885,9.885,0,0,1,.3-1.59A9.43,9.43,0,0,1,46,19.93a13,13,0,0,1,3.47-1.54c.78-.22-.67-2.71.14-2.79,3.89-.4,10.18,3.15,12.9,6.09a9.47,9.47,0,0,1,2.39,6l-.15,6.36A1.74,1.74,0,0,1,66,35.38a5.44,5.44,0,0,1-.67,3.34h0v.09l-2.8,4.59a23.762,23.762,0,0,1-3.42,4.72l.38.54A16.815,16.815,0,0,0,61.27,51a.16.16,0,0,1,.06.08c2.36,1.66,7.2,2.4,10.79,3.34,3,.79,4.1,1,4.77,4.28.34,1.62.35,3.4-.09,4.13ZM26.67,97.89a3.31,3.31,0,0,1,0-6.61H71l-.06.09v2.75h-.43l-.07.05h-.12l-.06.06h-.11l-.06.05h-.06l-.06.06h-.05l-.06.06-.06.06-.06.06v.23l-.06.06v.06h-.05v.12l-.05.06v.32l-.05.06v.48Zm1.27-18.16a3.27,3.27,0,1,1,0-6.53H75.78a3.27,3.27,0,1,1,0,6.53Z" fill="#e44499"/>
  </g>
</svg>
